X: 1422
T: Fair Fair With Golden Hair
B: australian traditional tunes wiki
M:3/4
L:1/8
R: Waltz
Q: 1/4=144
K:G
V:1 
GA|"G"B2D2B2|"C"c2D2c2|"G"d4B2|d4dc|B2D2G2|B2A2G2|B2A3G|"D"A4GA|
"G"B2D2B2|"C"c2D2c2|"G"d4B2|d4dc|B2A2G2|"D7"A2E2F2|"G"G4FA|G4 (3def||
"G"g6|"D"f4e2|"G"d4B2|d4dc|B2D2G2|B3AG2|B2"D"A3G|A4 (3def|
"G"g6|"D"f4e2|"G"d4B2|d4dc|B2A2GB|"D7"A2E2F2|"G"G6-|G4|]
% abcbook-tune_id 6342d53a0893c36aad92e3b6


% abcbook-boost 0
% abcbook-tablature 
% abcbook-transpose 
% abcbook-lastupdated 1665324364330
% abcbook-soundfonts 
% abcbook-repeats 1
% NFF Book 2020

